build/documents/CatalogExtSolid.svg

<svg xmlns="http://www.w3.org/2000/svg" fill="none" viewBox="0 0 24 24" focusable="false"><path d="M0 0H24V24H0z"/><path fill="#74767B" fill-rule="evenodd" d="M3.93018 5.9375C3.93018 4.34692 5.21973 3.05762 6.81006 3.05762L16.4048 3.05762C17.9951 3.05762 19.2847 4.34692 19.2847 5.9375L19.2847 11.1782C19.2847 11.3879 19.0669 11.5283 18.8696 11.4558C18.2744 11.2363 17.6343 11.1106 16.9658 11.0964C16.9253 11.0881 16.8833 11.0837 16.8403 11.0837L11.1973 11.0837C10.8525 11.0837 10.5732 11.363 10.5732 11.7078C10.5732 12.0525 10.8525 12.3318 11.1973 12.3318L13.2373 12.3318C11.8604 13.405 10.9746 15.0796 10.9746 16.9609C10.9746 18.0039 11.2466 18.9832 11.7241 19.832C11.8379 20.0344 11.6982 20.2979 11.4658 20.2979L6.81006 20.2979C5.21973 20.2979 3.93018 19.0085 3.93018 17.418L3.93018 5.9375ZM7.39404 8.03125C7.39404 8.56226 7.82471 8.99268 8.35547 8.99268C8.88672 8.99268 9.31689 8.56226 9.31689 8.03125C9.31689 7.50024 8.88672 7.06982 8.35547 7.06982C7.82471 7.06982 7.39404 7.50024 7.39404 8.03125ZM10.5732 8.06128C10.5732 7.71655 10.8525 7.43726 11.1973 7.43726L15.0674 7.43726C15.4121 7.43726 15.6914 7.71655 15.6914 8.06128C15.6914 8.40601 15.4121 8.6853 15.0674 8.6853L11.1973 8.6853C10.8525 8.6853 10.5732 8.40601 10.5732 8.06128ZM7.39404 11.6777C7.39404 12.2087 7.82471 12.6392 8.35547 12.6392C8.88672 12.6392 9.31689 12.2087 9.31689 11.6777C9.31689 11.1467 8.88672 10.7163 8.35547 10.7163C7.82471 10.7163 7.39404 11.1467 7.39404 11.6777ZM16.8398 21.5784C19.3901 21.5784 21.4575 19.511 21.4575 16.9607C21.4575 14.4104 19.3901 12.343 16.8398 12.343C14.2896 12.343 12.2222 14.4104 12.2222 16.9607C12.2222 19.511 14.2896 21.5784 16.8398 21.5784ZM16.5273 19.5171C16.7656 19.7661 17.1606 19.7749 17.4097 19.5366L19.6973 17.3486C19.8203 17.231 19.8896 17.0681 19.8896 16.8977C19.8896 16.7275 19.8203 16.5647 19.6973 16.447L17.4097 14.2576C17.1606 14.0193 16.7656 14.0278 16.5273 14.2769C16.2891 14.5259 16.2979 14.9209 16.5469 15.1592L17.7109 16.2734L14.4502 16.2734C14.1055 16.2734 13.8262 16.5527 13.8262 16.8975C13.8262 17.2419 14.1055 17.5215 14.4502 17.5215L17.7109 17.5215L16.5469 18.6348C16.2979 18.873 16.2891 19.2681 16.5273 19.5171ZM8.35547 16.2856C7.82471 16.2856 7.39404 15.8552 7.39404 15.3242C7.39404 14.7932 7.82471 14.363 8.35547 14.363C8.88672 14.363 9.31689 14.7932 9.31689 15.3242C9.31689 15.8552 8.88672 16.2856 8.35547 16.2856Z"/></svg>

<svg xmlns="http://www.w3.org/2000/svg" fill="none" viewBox="0 0 24 24" focusable="false"><path fill="#74767B" fill-rule="evenodd" d="M3.93 5.93c0-1.59 1.28-2.88 2.88-2.88h9.59a2.88 2.88 0 0 1 2.88 2.88v5.24c0 .21-.22.35-.42.28-.59-.22-1.23-.34-1.9-.36-.04-.01-.08-.01-.12-.01h-5.65a.625.625 0 0 0 0 1.25h2.04a5.86 5.86 0 0 0-2.26 4.63c0 1.04.27 2.02.75 2.87.11.2-.03.46-.26.46H6.81c-1.6 0-2.88-1.29-2.88-2.88zm3.46 2.1a.96.96 0 0 0 1.92 0c0-.53-.43-.97-.96-.97s-.96.44-.96.97m3.18.03c0-.35.28-.63.62-.63h3.87a.625.625 0 1 1 0 1.25h-3.87c-.34 0-.62-.28-.62-.62m-3.18 3.61a.96.96 0 1 0 1.92 0 .96.96 0 0 0-1.92 0m9.44 9.9c2.56 0 4.62-2.06 4.62-4.61a4.616 4.616 0 1 0-9.23 0c0 2.55 2.06 4.61 4.61 4.61m-.31-2.06c.24.25.64.26.88.02l2.29-2.19c.13-.11.19-.28.19-.45s-.06-.33-.19-.45l-2.29-2.19a.62.62 0 0 0-.88.02c-.24.25-.23.65.02.88l1.17 1.12h-3.26a.625.625 0 1 0 0 1.25h3.26l-1.17 1.11c-.25.24-.26.63-.02.88m-8.17-3.23a.96.96 0 1 1 0-1.92.96.96 0 0 1 0 1.92"/></svg>
